!!!COM: Pann, Anton
!!!CDT: 1796-1854
!!!OTL: National Anthem, Romania
!!!ENC: Davis, Matthew J.
!!Vocal Line Only
**kern
*clefG2
*k[f#]
*e:
*M4/4
=1-
2r
4r
==!|:2
!Coda Symbol
4.e
8f#
4g
4a
=3
2b
4e
4e
=4
4.cc
8b
4a
4a
=5
4.dd
8cc
4b
4b
=6
4.ee
8dd
8cc
8b
4a
=7
4b
2g
4a
=8
4.b
8a
4g
4f#
=9
4.e
8f#
4g
4a
=10
4b
8a
8g
4f#
4g
=11
2.e
4e
=12
4.e
8ee
4ee
4ee
=13
2ee
4dd
4dd
=14
4.ee
8dd
8cc
8b
4a
=15
4.dd
8cc
4b
4b
=16
4.ee
8dd
8cc
8b
4a
=17
4b
2g
4a
=18
4.b
8a
4g
4f#
=19
4.e
8f#
4g
4a
=20
4b
8a
8g
4f#
4g
=21
2.e
4e
=22
4.e
8ee
4ee
4ee
=23
2ee
4dd
4dd
=24
4.ee
8dd
8cc
8b
4a
=25
4.dd
8cc
4b
4b
=26
4.ee
8dd
8cc
8b
4a
=27
4b
2g
4a
=28
4.b
8a
4g
4f#
=29
4.e
8f#
4g
4a
=30
4b
8a
8g
4f#
3g
=31
!First, Second, and Third endings
2.e
4B
==:|!32
!Fourth Ending
!Dal segno
2.e
4r
==|!
*-
